X:776
%%etbk:tnset id:520,pos:2,rep:3x,ant:
%%etbk:color #bfe4ff
%%etbk:pldat 2016-09-13T17:05,2016-09-10T14:57,2016-09-07T17:23,2016-09-06T15:26,2016-09-04T13:38,2016-09-03T11:54,2016-08-21T11:19,2016-08-12T17:06,2016-08-10T16:57,2016-08-06T15:26,2016-08-04T18:18,2016-08-02T16:57,2016-08-02T16:44,2016-07-19T21:33,2016-07-15T17:28,2016-06-16T19:42,2016-06-01T18:20,2016-05-24T17:45,2016-05-14T18:00,2016-05-12T19:01,2016-05-11T18:13
T: Cloch Na Ceithre Mhile (am)
Z: Piano Box Version by Martin Fleischmann
H: Created 2015-04-09 /  Last Modified 2016-07-15
R: reel
M: 4/4
L: 1/8
K:Ador
|:!1!A,2!5!EA, A,2EA,|A,2!5!GE !2!D!1!B,!2!A,!3!B,|G,2(3B,A,G, DG,B,A,|G,!2!B,B,2 G,B,DB,|
A,2!2!EA, -A,!4!A!2!AB|!3!B/B/A BG AGAB|!3!B/B/A BG A!1!G!2!EA|1!4!GE!1!DB, G,A,A,G,:|2GEDB, !1!D3!2!E:|
|:!2!E!4!A!5!BA !2!E!4!A!5!BA|!4!Az!2!E2 !1!D2!3!B,!1!G,|!2!A,G,!4!DG, !5!EG,DG,|!4!(3DED (3B,DB, G,2 G,B,|
A,3!3!A -AB!5!c!4!B|AG !1!EDE2!3!A!4!B|!3!B/B/A BG AGEA|1GEDB, !1!D3!2!E:|2GEDB, G,A,A,G,|


